icon/pk/twitter.svg

<svg viewBox="0 0 48 48" fill="none" xmlns="http://www.w3.org/2000/svg" height="1em" width="1em">
  <path d="M5 35.7622C6.92886 36.8286 20.8914 44.8773 30.8199 38.674C40.7483 32.4707 40.2006 21.7833 40.2006 16.886C41.1 15.0018 43 14.0439 43 8.9438C41.1337 10.6678 39.2787 11.2544 37.435 10.7036C35.6287 7.94957 33.1435 6.73147 29.9794 7.04934C25.2333 7.52614 23.4969 12.1825 24.0079 18.2067C16.6899 21.9074 10.9515 15.524 7.99418 10.7036C7.00607 14.4999 6.0533 19.0576 7.99418 24.0995C9.2881 27.4607 12.3985 30.3024 17.3254 32.6246C12.3323 35.3308 8.22382 36.3766 5 35.7622Z" fill="#2F88FF" stroke="black" stroke-width="4" stroke-linejoin="round"/>
</svg>

<svg width="48" height="48" fill="none" xmlns="http://www.w3.org/2000/svg"><path d="M5 35.762c1.929 1.067 15.891 9.115 25.82 2.912 9.928-6.203 9.38-16.89 9.38-21.788.9-1.884 2.8-2.842 2.8-7.942-1.866 1.724-3.721 2.31-5.565 1.76-1.806-2.754-4.291-3.973-7.456-3.655-4.746.477-6.482 5.133-5.971 11.158-7.318 3.7-13.056-2.683-16.014-7.503-.988 3.796-1.94 8.354 0 13.395 1.294 3.362 4.405 6.203 9.331 8.526C12.332 35.33 8.224 36.377 5 35.762Z" fill="#2F88FF" stroke="#000" stroke-width="4" stroke-linejoin="round"/></svg>
